img/svgicons/bank.svg

<svg width="48" height="48" viewBox="0 0 48 48" fill="none" xmlns="http://www.w3.org/2000/svg">
<circle cx="24" cy="24" r="18" fill="#337D5A"/>
<circle cx="24" cy="24" r="24" fill="#93B474" fill-opacity="0.15"/>
<g clip-path="url(#clip0_302_8)">
<path d="M15.6035 18.3024C15.5966 18.3399 15.5927 18.378 15.5914 18.416V19.1974C15.5924 19.5194 15.7924 19.8073 16.0941 19.9204V21.0701C16.0955 21.455 16.3981 21.7714 16.7826 21.7896V28.4317C16.3981 28.4501 16.0955 28.7664 16.0941 29.1512V30.2976C15.7918 30.4137 15.5919 30.7037 15.5914 31.0274V31.7917C15.5914 31.9342 15.7072 32.0498 15.8496 32.0498H33.2615C33.404 32.0498 33.5196 31.9342 33.5196 31.7917V31.0274C33.5191 30.7036 33.3193 30.4136 33.0171 30.2976V29.1445C33.0157 28.7595 32.7129 28.4432 32.3286 28.425V21.7896C32.7129 21.7714 33.0157 21.455 33.0171 21.0701V19.9204C33.3186 19.8073 33.5186 19.5194 33.5196 19.1974V18.4212C33.5185 18.3831 33.5145 18.3451 33.5076 18.3075C33.6374 18.365 33.7892 18.3065 33.8467 18.1767C33.9042 18.047 33.8457 17.8953 33.716 17.8376L24.6744 13.0854C24.5989 13.0456 24.5088 13.0456 24.4333 13.0854L15.3918 17.8325C15.2656 17.8992 15.2173 18.0552 15.2837 18.1814C15.3445 18.2966 15.4816 18.3486 15.6035 18.3024ZM16.6104 20.3678V19.9702H19.5881V20.3644L16.6104 20.3678ZM23.2405 21.7914V28.4317C22.8561 28.4501 22.5534 28.7664 22.552 29.1512V30.2494H20.1009V29.1512C20.0995 28.7664 19.7969 28.4501 19.4124 28.4317V21.7896C19.7969 21.7714 20.0995 21.455 20.1009 21.0701V19.9702H22.5485V21.0685C22.5492 21.454 22.8521 21.7712 23.2371 21.7896L23.2405 21.7914ZM23.0684 20.3678V19.9702H26.0462V20.3644L23.0684 20.3678ZM29.6986 21.7914V28.4317C29.3142 28.4501 29.0114 28.7664 29.01 29.1512V30.2494H26.559V29.1512C26.5576 28.7664 26.2548 28.4501 25.8705 28.4317V21.7896C26.2548 21.7714 26.5576 21.455 26.559 21.0701V19.9702H29.0066V21.0685C29.0071 21.454 29.31 21.7712 29.6951 21.7896L29.6986 21.7914ZM29.5265 20.3678V19.9702H32.5041V20.3644L29.5265 20.3678ZM32.5041 29.8553V30.2494H29.523V29.8553H32.5041ZM26.0462 29.8553V30.2494H23.065V29.8553H26.0462ZM23.4952 21.2784H23.2715C23.1574 21.2784 23.065 21.186 23.065 21.0719V20.8842H26.0427V21.0719C26.0427 21.186 25.9502 21.2784 25.8361 21.2784H23.4952ZM25.3559 21.7948V28.4284H23.7535V21.7948H25.3559ZM23.4952 28.9447H25.8361C25.9502 28.9447 26.0427 29.0371 26.0427 29.1512V29.3389H23.065V29.1512C23.065 29.0371 23.1574 28.9447 23.2715 28.9447H23.4952ZM19.5847 29.8553V30.2494H16.6069V29.8553H19.5847ZM16.6069 21.077V20.8842H19.5847V21.0719C19.5847 21.186 19.4923 21.2784 19.378 21.2784H16.8083C16.6956 21.2756 16.6059 21.1829 16.6069 21.0701V21.077ZM18.8962 21.7999V28.4284H17.2954V21.7948L18.8962 21.7999ZM16.6069 29.1565C16.6069 29.0423 16.6993 28.9499 16.8134 28.9499H19.378C19.4923 28.9499 19.5847 29.0423 19.5847 29.1565V29.3441H16.6069V29.1565ZM33.0033 31.0378V31.5437H16.1044V31.0378C16.1044 30.8904 16.2238 30.7709 16.3712 30.7709H32.7365C32.8818 30.7709 33.0005 30.8873 33.0033 31.0325V31.0378ZM32.5007 29.1565V29.3441H29.523V29.1565C29.523 29.0423 29.6154 28.9499 29.7295 28.9499H32.2994C32.4095 28.9526 32.498 29.0411 32.5007 29.1512V29.1565ZM30.2114 28.4335V21.7948H31.8139V28.4284L30.2114 28.4335ZM32.5007 21.077C32.5007 21.1912 32.4083 21.2836 32.2942 21.2836H29.7312C29.6171 21.2836 29.5247 21.1912 29.5247 21.077V20.8842H32.5024L32.5007 21.077ZM24.5538 13.6018L32.2425 17.6432H16.8652L24.5538 13.6018ZM16.1044 18.4212C16.1044 18.2787 16.22 18.163 16.3625 18.163H32.7452C32.8877 18.163 33.0033 18.2787 33.0033 18.4212V19.2027C33.0033 19.3452 32.8877 19.4608 32.7452 19.4608H16.3625C16.22 19.4608 16.1044 19.3452 16.1044 19.2027V18.4212Z" fill="white"/>
</g>
<defs>
<clipPath id="clip0_302_8">
<rect width="19" height="19" fill="white" transform="translate(14 14)"/>
</clipPath>
</defs>
</svg>

<svg width="48" height="48" fill="none" xmlns="http://www.w3.org/2000/svg"><circle cx="24" cy="24" r="18" fill="#337D5A"/><circle cx="24" cy="24" r="24" fill="#93B474" fill-opacity=".15"/><g clip-path="url(#a)"><path d="M15.604 18.302a.775.775 0 0 0-.013.114v.781c.001.322.201.61.503.723v1.15a.723.723 0 0 0 .689.72v6.642a.723.723 0 0 0-.689.72v1.146a.783.783 0 0 0-.503.73v.764c0 .142.116.258.259.258H33.26a.258.258 0 0 0 .259-.258v-.765c0-.323-.2-.613-.503-.73v-1.152a.723.723 0 0 0-.688-.72V21.79a.723.723 0 0 0 .688-.72v-1.15a.775.775 0 0 0 .503-.723v-.776a.75.75 0 0 0-.012-.113.257.257 0 0 0 .208-.47l-9.042-4.753a.258.258 0 0 0-.24 0l-9.042 4.747a.258.258 0 0 0 .212.47Zm1.006 2.066v-.398h2.978v.394l-2.978.004Zm6.63 1.423v6.64a.723.723 0 0 0-.688.72v1.098h-2.451v-1.098a.723.723 0 0 0-.689-.72V21.79a.723.723 0 0 0 .689-.72v-1.1h2.448v1.099c0 .385.303.702.688.72l.004.002Zm-.172-1.423v-.398h2.978v.394l-2.978.004Zm6.63 1.423v6.64a.723.723 0 0 0-.688.72v1.098h-2.451v-1.098a.723.723 0 0 0-.689-.72V21.79a.723.723 0 0 0 .689-.72v-1.1h2.448v1.099c0 .385.303.702.688.72l.004.002Zm-.172-1.423v-.398h2.978v.394l-2.977.004Zm2.978 9.487v.394h-2.981v-.394h2.981Zm-6.458 0v.394h-2.981v-.394h2.981Zm-2.55-8.577h-.224a.206.206 0 0 1-.207-.206v-.188h2.978v.188a.207.207 0 0 1-.207.206h-2.34Zm1.86.517v6.633h-1.603v-6.633h1.603Zm-1.86 7.15h2.34c.114 0 .207.092.207.206v.188h-2.978v-.188c0-.114.092-.206.206-.206h.224Zm-3.911.91v.394h-2.978v-.394h2.978Zm-2.978-8.778v-.193h2.978v.188a.206.206 0 0 1-.207.206h-2.57a.207.207 0 0 1-.201-.208v.007Zm2.29.723v6.628h-1.602v-6.633l1.601.005Zm-2.29 7.357c0-.115.092-.207.206-.207h2.565c.114 0 .207.092.207.207v.187h-2.978v-.188Zm16.396 1.88v.507H16.104v-.506c0-.148.12-.267.267-.267h16.366c.145 0 .264.116.266.261v.006Zm-.502-1.88v.187h-2.978v-.188c0-.114.092-.206.207-.206h2.57c.11.003.198.091.2.201v.006Zm-2.29-.724v-6.638h1.603v6.633l-1.603.005Zm2.29-7.356a.206.206 0 0 1-.207.207h-2.563a.206.206 0 0 1-.206-.207v-.193h2.977l-.001.193Zm-7.947-7.475 7.689 4.041H16.864l7.689-4.041Zm-8.45 4.82c0-.143.116-.259.259-.259h16.382c.143 0 .258.116.258.258v.782a.258.258 0 0 1-.258.258H16.363a.258.258 0 0 1-.259-.258v-.782Z" fill="#fff"/></g><defs><clipPath id="a"><path fill="#fff" transform="translate(14 14)" d="M0 0h19v19H0z"/></clipPath></defs></svg>
